src/status/16/keepassx-indicator.svg

<svg width="16" height="16" viewBox="0 0 33.333 33.333" xmlns="http://www.w3.org/2000/svg">
 <path transform="scale(2.0833)" d="m11 0a5 5 0 0 0-5 5 5 5 0 0 0 0.30273 1.6973l-0.30273 0.30273-3-3h-3v3l3 3-3 3v3h3l3-3 3 3h3v-3l-3-3 0.301-0.301a5 5 0 0 0 1.699 0.301 5 5 0 0 0 5-5 5 5 0 0 0-5-5zm1.5 2a1.5 1.5 0 0 1 1.5 1.5 1.5 1.5 0 0 1-1.5 1.5 1.5 1.5 0 0 1-1.5-1.5 1.5 1.5 0 0 1 1.5-1.5z" fill="#2e3440"/>
</svg>

<!-- Created with Inkscape (http://www.inkscape.org/) -->
<svg height="16" width="16" xmlns="http://www.w3.org/2000/svg" viewBox="0 0 33.333333 33.333333">
 <path transform="matrix(2.08333 0 0 2.08333 0 0)" style="fill:#2e3440;opacity:1;fill-opacity:1;stroke:none;fill-rule:nonzero" d="M 11 0 A 5 5 0 0 0 6 5 A 5 5 0 0 0 6.302734 6.697266 L 6 7 L 3 4 L 0 4 L 0 7 L 3 10 L 0 13 L 0 16 L 3 16 L 6 13 L 9 16 L 12 16 L 12 13 L 9 10 L 9.301 9.699 A 5 5 0 0 0 11 10 A 5 5 0 0 0 16 5 A 5 5 0 0 0 11 0 z M 12.5 2 A 1.5 1.5 0 0 1 14 3.5 A 1.5 1.5 0 0 1 12.5 5 A 1.5 1.5 0 0 1 11 3.5 A 1.5 1.5 0 0 1 12.5 2 z"/>
</svg>
